packages/foundations/assets/icons/functional/images/business & payment/discount_24.svg

<svg width="24" height="24" viewBox="0 0 24 24" fill="none" xmlns="http://www.w3.org/2000/svg">
<g clip-path="url(#clip0_184_33)">
<path fill-rule="evenodd" clip-rule="evenodd" d="M12 2.14C12.656 2.14 13.239 2.431 13.651 2.941L14.526 4.01C14.55 4.059 14.623 4.059 14.696 4.034L15.983 3.694C16.2888 3.61204 16.6091 3.5995 16.9204 3.65729C17.2317 3.71508 17.5262 3.84174 17.7822 4.028C18.0383 4.21426 18.2495 4.45541 18.4003 4.7338C18.5511 5.01219 18.6378 5.32079 18.654 5.637L18.727 7.021C18.727 7.071 18.776 7.119 18.824 7.143L20.111 7.629C20.5109 7.77957 20.8553 8.04854 21.0983 8.40001C21.3413 8.75147 21.4713 9.1687 21.471 9.596C21.471 10.009 21.35 10.421 21.131 10.761L20.379 11.927C20.367 11.9495 20.3607 11.9745 20.3607 12C20.3607 12.0255 20.367 12.0505 20.379 12.073L21.131 13.239C21.35 13.579 21.471 13.991 21.471 14.404C21.471 15.206 21.01 16.031 20.111 16.371L18.824 16.857C18.751 16.881 18.727 16.906 18.727 16.979L18.654 18.363C18.6295 18.9066 18.3961 19.4197 18.0024 19.7954C17.6087 20.171 17.0851 20.3801 16.541 20.379C16.347 20.379 16.177 20.354 15.983 20.306L14.696 19.966C14.623 19.941 14.55 19.941 14.526 19.99L13.651 21.059C13.239 21.569 12.656 21.86 12 21.86C11.682 21.8606 11.3681 21.7888 11.0821 21.65C10.796 21.5112 10.5453 21.3091 10.349 21.059L9.49899 19.99C9.44999 19.941 9.40099 19.917 9.32899 19.941L8.01699 20.306C7.71116 20.388 7.39086 20.4005 7.07955 20.3427C6.76824 20.2849 6.47379 20.1583 6.21775 19.972C5.9617 19.7857 5.75053 19.5446 5.5997 19.2662C5.44887 18.9878 5.36218 18.6792 5.34599 18.363L5.27299 16.979C5.27299 16.929 5.24899 16.881 5.17599 16.857L3.88899 16.371C3.48911 16.2204 3.14467 15.9515 2.90166 15.6C2.65866 15.2485 2.52865 14.8313 2.52899 14.404C2.52899 13.991 2.64999 13.579 2.86899 13.239L3.62099 12.073C3.63299 12.0505 3.63926 12.0255 3.63926 12C3.63926 11.9745 3.63299 11.9495 3.62099 11.927L2.86899 10.761C2.64757 10.4127 2.52966 10.0087 2.52899 9.596C2.52899 8.794 2.98999 7.969 3.88899 7.629L5.17599 7.143C5.22399 7.119 5.27299 7.07 5.27299 7.021L5.34599 5.637C5.37048 5.09341 5.60392 4.58027 5.99762 4.20465C6.39132 3.82902 6.91485 3.61993 7.45899 3.621C7.65299 3.621 7.82299 3.646 8.01699 3.694L9.30399 4.034C9.35299 4.059 9.44999 4.034 9.47399 4.01L10.349 2.941C10.761 2.431 11.344 2.14 12 2.14ZM11.903 4.204L11.029 5.273C10.616 5.783 10.009 6.05 9.37699 6.05C9.20699 6.05 9.01299 6.026 8.81899 5.977L7.48299 5.637C7.40999 5.613 7.33699 5.661 7.33699 5.734L7.26399 7.12C7.21599 7.97 6.68099 8.674 5.90399 8.99L4.61699 9.5C4.54399 9.524 4.51999 9.621 4.56899 9.694L5.29699 10.835C5.51599 11.2 5.63699 11.588 5.63699 12.001C5.63699 12.414 5.51599 12.802 5.29699 13.167L4.56899 14.284C4.54399 14.357 4.54399 14.454 4.61699 14.478L5.90399 15.012C6.68099 15.328 7.21599 16.032 7.26399 16.882L7.33699 18.267C7.33699 18.34 7.38599 18.388 7.48299 18.364L8.81899 18.024C9.01299 17.975 9.20699 17.951 9.37699 17.951C10.009 17.951 10.616 18.218 11.029 18.728L11.903 19.797C11.9132 19.8135 11.9275 19.8272 11.9445 19.8367C11.9614 19.8461 11.9806 19.8511 12 19.8511C12.0194 19.8511 12.0386 19.8461 12.0555 19.8367C12.0725 19.8272 12.0868 19.8135 12.097 19.797L12.971 18.728C13.1704 18.4828 13.4224 18.2857 13.7084 18.1512C13.9944 18.0167 14.307 17.9483 14.623 17.951C14.793 17.951 14.987 17.975 15.181 18.024L16.517 18.364C16.59 18.388 16.663 18.315 16.663 18.267L16.736 16.882C16.784 16.032 17.319 15.328 18.096 15.012L19.383 14.502C19.48 14.478 19.504 14.381 19.456 14.332L18.703 13.167C18.4845 12.817 18.3668 12.4136 18.363 12.001C18.363 11.588 18.484 11.2 18.703 10.835L19.431 9.718C19.48 9.621 19.456 9.524 19.383 9.5L18.096 8.99C17.319 8.674 16.784 7.97 16.736 7.12L16.663 5.735C16.663 5.662 16.59 5.614 16.517 5.638L15.181 5.978C14.9986 6.02452 14.8112 6.04903 14.623 6.051C14.307 6.05374 13.9944 5.98531 13.7084 5.85081C13.4224 5.7163 13.1704 5.51916 12.971 5.274L12.097 4.205C12.0868 4.18846 12.0725 4.1748 12.0555 4.16533C12.0386 4.15586 12.0194 4.15089 12 4.15089C11.9806 4.15089 11.9614 4.15586 11.9445 4.16533C11.9275 4.1748 11.9132 4.18746 11.903 4.204ZM15.011 15.011C15.1421 15.0125 15.2722 14.9877 15.3936 14.9383C15.5151 14.8888 15.6254 14.8156 15.7182 14.7229C15.811 14.6302 15.8843 14.52 15.9339 14.3986C15.9835 14.2772 16.0083 14.1471 16.007 14.016C16.0085 13.8848 15.9837 13.7546 15.9342 13.6331C15.8846 13.5116 15.8113 13.4012 15.7186 13.3084C15.6258 13.2157 15.5154 13.1423 15.3939 13.0928C15.2724 13.0433 15.1422 13.0185 15.011 13.02C14.8799 13.0187 14.7498 13.0435 14.6284 13.0931C14.507 13.1427 14.3968 13.216 14.3041 13.3088C14.2114 13.4016 14.1382 13.5119 14.0887 13.6333C14.0392 13.7548 14.0145 13.8849 14.016 14.016C14.016 14.574 14.453 15.011 15.011 15.011ZM9.98399 15.011C9.85124 15.0109 9.71984 14.9843 9.59752 14.9327C9.47521 14.8811 9.36444 14.8055 9.27174 14.7105C9.17904 14.6155 9.10627 14.5029 9.05772 14.3793C9.00916 14.2557 8.98579 14.1237 8.98899 13.991C8.98899 13.749 9.08599 13.481 9.27999 13.287L13.287 9.28C13.481 9.086 13.749 8.989 13.991 8.989C14.1257 8.98628 14.2595 9.0108 14.3845 9.0611C14.5095 9.11139 14.623 9.18642 14.7183 9.28169C14.8136 9.37695 14.8886 9.49048 14.9389 9.61546C14.9892 9.74045 15.0137 9.8743 15.011 10.009C15.011 10.251 14.914 10.519 14.72 10.713L10.713 14.72C10.518 14.9096 10.2559 15.0142 9.98399 15.011ZM9.01299 11.004C9.59599 11.004 10.057 10.543 10.057 9.96C10.057 9.401 9.59599 8.916 9.01299 8.916C8.42999 8.916 7.96899 9.4 7.96899 9.96C7.96899 10.543 8.42999 11.004 9.01299 11.004Z" fill="#1A1C1F"/>
</g>
<defs>
<clipPath id="clip0_184_33">
<rect width="24" height="24" fill="white"/>
</clipPath>
</defs>
</svg>

<svg xmlns="http://www.w3.org/2000/svg" width="24" height="24" fill="none"><g clip-path="url(#a)"><path fill="#1A1C1F" fill-rule="evenodd" d="M12 2.14c.656 0 1.239.291 1.651.801l.875 1.069c.024.049.097.049.17.024l1.287-.34a2.124 2.124 0 0 1 2.671 1.943l.073 1.384c0 .05.049.098.097.122l1.287.486a2.1 2.1 0 0 1 1.36 1.967c0 .413-.121.825-.34 1.165l-.752 1.166a.16.16 0 0 0 0 .146l.752 1.166c.219.34.34.752.34 1.165 0 .802-.461 1.627-1.36 1.967l-1.287.486c-.073.024-.097.049-.097.122l-.073 1.384a2.11 2.11 0 0 1-2.113 2.016c-.194 0-.364-.025-.558-.073l-1.287-.34c-.073-.025-.146-.025-.17.024l-.875 1.069c-.412.51-.995.801-1.651.801a2.1 2.1 0 0 1-1.651-.801l-.85-1.069c-.049-.049-.098-.073-.17-.049l-1.312.365a2.123 2.123 0 0 1-2.671-1.943l-.073-1.384c0-.05-.024-.098-.097-.122l-1.287-.486a2.1 2.1 0 0 1-1.36-1.967c0-.413.121-.825.34-1.165l.752-1.166a.16.16 0 0 0 0-.146l-.752-1.166a2.2 2.2 0 0 1-.34-1.165c0-.802.461-1.627 1.36-1.967l1.287-.486c.048-.024.097-.073.097-.122l.073-1.384a2.11 2.11 0 0 1 2.113-2.016c.194 0 .364.025.558.073l1.287.34c.049.025.146 0 .17-.024l.875-1.069c.412-.51.995-.801 1.651-.801m-.097 2.064-.874 1.069c-.413.51-1.02.777-1.652.777-.17 0-.364-.024-.558-.073l-1.336-.34c-.073-.024-.146.024-.146.097L7.264 7.12c-.048.85-.583 1.554-1.36 1.87l-1.287.51c-.073.024-.097.121-.048.194l.728 1.141c.219.365.34.753.34 1.166s-.121.801-.34 1.166l-.728 1.117c-.025.073-.025.17.048.194l1.287.534c.777.316 1.312 1.02 1.36 1.87l.073 1.385c0 .073.049.121.146.097l1.336-.34c.194-.049.388-.073.558-.073.632 0 1.239.267 1.652.777l.874 1.069a.114.114 0 0 0 .152.04.1.1 0 0 0 .042-.04l.874-1.069a2.1 2.1 0 0 1 1.652-.777c.17 0 .364.024.558.073l1.336.34c.073.024.146-.049.146-.097l.073-1.385c.048-.85.583-1.554 1.36-1.87l1.287-.51c.097-.024.121-.121.073-.17l-.753-1.165a2.24 2.24 0 0 1-.34-1.166c0-.413.121-.801.34-1.166l.728-1.117c.049-.097.025-.194-.048-.218l-1.287-.51c-.777-.316-1.312-1.02-1.36-1.87l-.073-1.385c0-.073-.073-.121-.146-.097l-1.336.34q-.274.07-.558.073a2.1 2.1 0 0 1-1.652-.777l-.874-1.069a.114.114 0 0 0-.152-.04.1.1 0 0 0-.042.039m3.108 10.807a.985.985 0 0 0 .996-.995.985.985 0 0 0-.996-.996.986.986 0 0 0-.995.996c0 .558.437.995.995.995m-5.027 0a.996.996 0 0 1-.995-1.02c0-.242.097-.51.291-.704l4.007-4.007c.194-.194.462-.291.704-.291a1 1 0 0 1 1.02 1.02c0 .242-.097.51-.291.704l-4.007 4.007c-.195.19-.457.294-.729.291m-.971-4.007c.583 0 1.044-.461 1.044-1.044 0-.559-.461-1.044-1.044-1.044A1.05 1.05 0 0 0 7.969 9.96c0 .583.461 1.044 1.044 1.044" clip-rule="evenodd"/></g><defs><clipPath id="a"><path fill="#fff" d="M0 0h24v24H0z"/></clipPath></defs></svg>
